src/public/assets/tokens/jeur.svg

<svg width="24" height="24" viewBox="0 0 24 24" fill="none" xmlns="http://www.w3.org/2000/svg">
<path d="M10.7359 6.40286C10.0243 7.11446 9.48728 8.05067 9.16818 9.229H16.333C16.8853 9.229 17.333 9.67672 17.333 10.229C17.333 10.7813 16.8853 11.229 16.333 11.229H8.85534C8.84053 11.4783 8.83301 11.7353 8.83301 12C8.83301 12.2647 8.84053 12.5217 8.85534 12.771H13.5C14.0523 12.771 14.5 13.2187 14.5 13.771C14.5 14.3233 14.0523 14.771 13.5 14.771H9.16818C9.48728 15.9493 10.0243 16.8855 10.7359 17.5971C11.9354 18.7967 13.7731 19.5 16.333 19.5C16.8853 19.5 17.333 19.9477 17.333 20.5C17.333 21.0523 16.8853 21.5 16.333 21.5C13.4149 21.5 11.0026 20.6923 9.32165 19.0114C8.20755 17.8973 7.47707 16.4619 7.11108 14.771H5C4.44772 14.771 4 14.3233 4 13.771C4 13.2187 4.44772 12.771 5 12.771H6.85245C6.83947 12.5182 6.83301 12.2611 6.83301 12C6.83301 11.7389 6.83947 11.4818 6.85245 11.229H5C4.44772 11.229 4 10.7813 4 10.229C4 9.67672 4.44772 9.229 5 9.229H7.11108C7.47706 7.53807 8.20755 6.10274 9.32165 4.98864C11.0026 3.30767 13.4149 2.5 16.333 2.5C16.8853 2.5 17.333 2.94772 17.333 3.5C17.333 4.05228 16.8853 4.5 16.333 4.5C13.7731 4.5 11.9354 5.20333 10.7359 6.40286Z" fill="#0050db"/>
</svg>

<svg id="Слой_1" data-name="Слой 1" xmlns="http://www.w3.org/2000/svg" viewBox="0 0 24 24"><title>JEURМонтажная область 1</title><path d="M10.74,6.4A6.14,6.14,0,0,0,9.17,9.23h7.16a1,1,0,0,1,0,2H8.86c0,.25,0,.51,0,.77s0,.52,0,.77H13.5a1,1,0,0,1,0,2H9.17a6.14,6.14,0,0,0,1.57,2.83,7.59,7.59,0,0,0,5.59,1.9,1,1,0,0,1,0,2,9.57,9.57,0,0,1-7-2.49,8.41,8.41,0,0,1-2.21-4.24H5a1,1,0,0,1,0-2H6.85c0-.25,0-.51,0-.77s0-.52,0-.77H5a1,1,0,0,1,0-2H7.11A8.41,8.41,0,0,1,9.32,5a9.57,9.57,0,0,1,7-2.49,1,1,0,0,1,0,2A7.59,7.59,0,0,0,10.74,6.4Z"/></svg>
